assets/svg/account-black.svg

<svg height="28" viewBox="0 0 30 28" width="30" xmlns="http://www.w3.org/2000/svg"><path d="m1185 105c0-.182742.01015-.416242.03046-.700508.0203-.284265.13198-.730961.33502-1.340101.20305-.60914.47208-1.091369.80711-1.446701.33503-.355331.98984-.736038 1.96447-1.142132.97462-.406093 2.07106-.8324847 3.28934-1.2791874 1.21828-.4467028 2.13197-.8121813 2.74111-1.0964467.73097-.3654841 1.28934-.9137019 1.67513-1.6446701.38579-.7309681.58883-1.4720774.60914-2.2233502 0-.5482261-.31472-1.1776614-.94417-1.8883249-.36548-.426398-.6802-1.0253768-.94416-1.7969543-.8934-.365484-1.3401-1.0964412-1.3401-2.1928934 0-.8324915.15228-1.4314702.45685-1.7969543-.08122-.5482261-.17259-1.3604007-.27411-2.4365482l-.06091-.6395939c-.02031-.2639607 0-.7106568.06091-1.3401015.06092-.6294448.2132-1.1675105.45685-1.6142132.38579-.6700541.86295-1.1269024 1.43148-1.3705584s1.04568-.2944169 1.43147-.1522843h.03046c.0203-.1015233.06091-.2335017.12182-.395939.06092-.1624374.20305-.3857854.4264-.6700508s.47715-.487309.76142-.6091371c.16244-.0812186.41624-.1421317.76142-.1827411.34518-.0406093.78172-.0507615 1.30965-.0304568.52792.0203046 1.05583.1015221 1.58375.2436548s1.07614.3553285 1.64467.6395939 1.06599.6700483 1.49239 1.1573604.78172 1.0862909 1.06599 1.7969543c.28426.7106635.43655 1.5634468.45685 2.5583756v.6091371c-.08122.9137101-.17259 1.7258848-.27411 2.4365482.28426.3654841.42639.9644628.42639 1.7969543 0 1.0964522-.44669 1.8274094-1.3401 2.1928934-.26396.7715775-.57868 1.3705563-.94416 1.7969543-.62944.7106635-.94416 1.3400988-.94416 1.8883249 0 .7715774.20304 1.5126868.60914 2.2233502.40609.7106635.96446 1.2588814 1.67512 1.6446701.58884.30457 1.50253.6700486 2.74112 1.0964467 1.23858.426398 2.34517.8527897 3.3198 1.2791874.97462.426398 1.62436.802029 1.94923 1.126904.36549.345179.6396.81218.82234 1.401015.18274.588836.28426 1.086293.30457 1.492386l.03046.609137z" fill="#111" fill-rule="evenodd" transform="translate(-1185 -77)"/></svg>

<?xml version="1.0" encoding="UTF-8"?>
<svg width="30px" height="28px" viewBox="0 0 30 28" version="1.1" xmlns="http://www.w3.org/2000/svg" xmlns:xlink="http://www.w3.org/1999/xlink">
    <!-- Generator: Sketch 48.2 (47327) - http://www.bohemiancoding.com/sketch -->
    <title></title>
    <desc>Created with Sketch.</desc>
    <defs></defs>
    <g id="Header-Desktop" stroke="none" stroke-width="1" fill="none" fill-rule="evenodd" transform="translate(-1185.000000, -77.000000)">
        <path d="M1185,105 C1185,104.817258 1185.01015,104.583758 1185.03046,104.299492 C1185.05076,104.015227 1185.16244,103.568531 1185.36548,102.959391 C1185.56853,102.350251 1185.83756,101.868022 1186.17259,101.51269 C1186.50762,101.157359 1187.16243,100.776652 1188.13706,100.370558 C1189.11168,99.964465 1190.20812,99.5380733 1191.4264,99.0913706 C1192.64468,98.6446678 1193.55837,98.2791893 1194.16751,97.9949239 C1194.89848,97.6294398 1195.45685,97.081222 1195.84264,96.3502538 C1196.22843,95.6192857 1196.43147,94.8781764 1196.45178,94.1269036 C1196.45178,93.5786775 1196.13706,92.9492422 1195.50761,92.2385787 C1195.14213,91.8121807 1194.82741,91.2132019 1194.56345,90.4416244 C1193.67005,90.0761404 1193.22335,89.3451832 1193.22335,88.248731 C1193.22335,87.4162395 1193.37563,86.8172608 1193.6802,86.4517767 C1193.59898,85.9035506 1193.50761,85.091376 1193.40609,84.0152285 L1193.34518,83.3756346 C1193.32487,83.1116739 1193.34518,82.6649778 1193.40609,82.0355331 C1193.46701,81.4060883 1193.61929,80.8680226 1193.86294,80.4213199 C1194.24873,79.7512658 1194.72589,79.2944175 1195.29442,79.0507615 C1195.86295,78.8071055 1196.3401,78.7563446 1196.72589,78.8984772 L1196.75635,78.8984772 C1196.77665,78.7969539 1196.81726,78.6649755 1196.87817,78.5025382 C1196.93909,78.3401008 1197.08122,78.1167528 1197.30457,77.8324874 C1197.52792,77.548222 1197.78172,77.3451784 1198.06599,77.2233503 C1198.22843,77.1421317 1198.48223,77.0812186 1198.82741,77.0406092 C1199.17259,76.9999999 1199.60913,76.9898477 1200.13706,77.0101524 C1200.66498,77.030457 1201.19289,77.1116745 1201.72081,77.2538072 C1202.24873,77.3959399 1202.79695,77.6091357 1203.36548,77.8934011 C1203.93401,78.1776665 1204.43147,78.5634494 1204.85787,79.0507615 C1205.28427,79.5380736 1205.63959,80.1370524 1205.92386,80.8477158 C1206.20812,81.5583793 1206.36041,82.4111626 1206.38071,83.4060914 L1206.38071,84.0152285 C1206.29949,84.9289386 1206.20812,85.7411133 1206.1066,86.4517767 C1206.39086,86.8172608 1206.53299,87.4162395 1206.53299,88.248731 C1206.53299,89.3451832 1206.0863,90.0761404 1205.19289,90.4416244 C1204.92893,91.2132019 1204.61421,91.8121807 1204.24873,92.2385787 C1203.61929,92.9492422 1203.30457,93.5786775 1203.30457,94.1269036 C1203.30457,94.898481 1203.50761,95.6395904 1203.91371,96.3502538 C1204.3198,97.0609173 1204.87817,97.6091352 1205.58883,97.9949239 C1206.17767,98.2994939 1207.09136,98.6649725 1208.32995,99.0913706 C1209.56853,99.5177686 1210.67512,99.9441603 1211.64975,100.370558 C1212.62437,100.796956 1213.27411,101.172587 1213.59898,101.497462 C1213.96447,101.842641 1214.23858,102.309642 1214.42132,102.898477 C1214.60406,103.487313 1214.70558,103.98477 1214.72589,104.390863 L1214.75635,105 L1185,105 Z" id="" fill="#111111"></path>
    </g>
</svg>
